icons/svg/fingerprint.svg

﻿<?xml version="1.0" encoding="utf-8"?>
<!DOCTYPE svg PUBLIC "-//W3C//DTD SVG 1.1//EN" "http://www.w3.org/Graphics/SVG/1.1/DTD/svg11.dtd">
<svg xmlns="http://www.w3.org/2000/svg" xmlns:xlink="http://www.w3.org/1999/xlink" version="1.1" baseProfile="full" width="24" height="24" viewBox="0 0 24.00 24.00" enable-background="new 0 0 24.00 24.00" xml:space="preserve">
	<path fill="#000000" fill-opacity="1" stroke-width="1.33333" stroke-linejoin="miter" d="M 11.8301,1.7285C 8.42632,1.7892 6.23242,3.3223 6.23242,3.3223C 5.94808,3.518 5.87626,3.9072 6.07201,4.1916C 6.26777,4.4759 6.65696,4.5477 6.96094,4.3379C 6.96094,4.3379 11.2719,1.1459 17.4551,4.3828C 17.7549,4.5539 18.1367,4.4496 18.3078,4.1498C 18.4789,3.85 18.3746,3.4682 18.0332,3.2754C 16.3562,2.3975 14.7802,1.9629 13.3594,1.8027C 12.8266,1.7426 12.3163,1.7198 11.8301,1.7285 Z M 12.2168,4.3418C 6.26464,4.2648 3.40625,9.0469 3.40625,9.0469C 3.21646,9.3352 3.29637,9.7229 3.58473,9.9126C 3.87309,10.1024 4.2607,10.0225 4.48047,9.6836C 4.48047,9.6836 6.91701,5.5237 12.2012,5.5918C 17.5038,5.6598 19.8223,9.6465 19.8223,9.6465C 19.9981,9.9437 20.3815,10.042 20.6787,9.8662C 20.9759,9.6904 21.0743,9.3069 20.8984,9.0098C 20.8984,9.0098 18.1505,4.4179 12.2168,4.3418 Z M 11.5059,6.8203C 9.81961,6.9394 8.21462,7.5515 7,8.5586C 4.62259,10.53 3.09587,14.1447 4.77148,19.0039C 4.88421,19.3302 5.24011,19.5033 5.56641,19.3906C 5.89271,19.2779 6.06585,18.922 5.95313,18.5957L 5.95313,18.5957C 4.41157,14.1252 5.77944,11.196 7.79883,9.5215C 9.76639,7.89 13.2458,7.4761 15.8379,9.1035C 17.1117,9.9033 18.0981,11.2765 18.6035,12.6387C 19.109,14.0009 19.0824,15.3154 18.6738,15.9375C 18.2468,16.5878 17.3994,16.8342 16.6484,16.6426C 15.8975,16.451 15.2857,15.9121 15.2637,14.7656C 15.231,13.0644 13.8862,11.9966 12.5215,11.8379C 11.1568,11.6792 9.61368,12.3951 9.20703,13.9805C 8.45277,16.9211 10.3573,21.0729 14.7832,22.4473C 15.1133,22.5497 15.4639,22.3652 15.5664,22.0352C 15.6689,21.7051 15.4844,21.3544 15.1543,21.2519C 11.3205,20.0613 9.86829,16.4341 10.418,14.291C 10.6633,13.3346 11.5052,12.9767 12.377,13.0781C 13.2487,13.1794 13.9928,13.7041 14.0137,14.791C 14.0452,16.4327 15.1203,17.5424 16.3398,17.8535C 17.5594,18.1647 18.9662,17.7694 19.7188,16.623C 20.4898,15.4487 20.3675,13.8009 19.7754,12.2051C 19.1833,10.6093 18.0692,9.0277 16.5039,8.0449C 14.9609,7.0762 13.1921,6.7013 11.5059,6.8203 Z M 11.8574,9.2539L 11.8574,9.2559C 10.0785,9.3189 8.30168,10.2388 7.27539,12.1797C 5.95709,14.6729 6.55577,17.2133 7.44336,19.0449C 8.33095,20.8766 9.53516,22.1035 9.53516,22.1035C 9.77678,22.3505 10.1729,22.3549 10.4199,22.1133C 10.6669,21.8717 10.6713,21.4755 10.4297,21.2285C 10.4297,21.2285 9.35618,20.1298 8.56641,18.5C 7.77664,16.8702 7.29766,14.8141 8.38086,12.7656C 9.48847,10.6708 11.4802,10.1583 13.2617,10.6738C 15.0433,11.1893 16.5282,12.7406 16.4805,15.0332C 16.4552,15.3775 16.7138,15.6771 17.0581,15.7024C 17.4024,15.7276 17.702,15.469 17.7285,15.0566C 17.788,12.2017 15.8737,10.1259 13.6094,9.4707C 13.0433,9.3069 12.4504,9.2329 11.8574,9.2539 Z M 12.0781,14.2519C 11.7337,14.2616 11.462,14.5481 11.4707,14.8926C 11.4707,14.8926 11.4754,16.374 12.3125,17.8027C 13.1496,19.2313 14.932,20.5918 18.0293,20.3008C 18.3739,20.2801 18.6365,19.984 18.6158,19.6394C 18.5952,19.2948 18.2991,19.0322 17.9141,19.0566C 15.1947,19.3121 14.0378,18.2764 13.3906,17.1719C 12.7435,16.0675 12.7207,14.8789 12.7207,14.8789C 12.7219,14.5337 12.443,14.2529 12.0781,14.2519 Z "/>
</svg>

<svg xmlns="http://www.w3.org/2000/svg" version="1.1" baseProfile="full" width="24" height="24" viewBox="0 0 24.00 24.00" xml:space="preserve"><path fill="#000" fill-opacity="1" stroke-width="1.333" stroke-linejoin="miter" d="M11.83 1.728c-3.404.06-5.598 1.594-5.598 1.594-.284.196-.356.585-.16.87.196.284.585.356.89.146 0 0 4.31-3.192 10.493.045.3.17.682.067.853-.233.17-.3.067-.682-.275-.875-1.677-.877-3.253-1.312-4.674-1.472-.533-.06-1.044-.083-1.53-.075zm.387 2.614c-5.952-.077-8.81 4.705-8.81 4.705-.19.288-.11.676.178.866.288.19.676.11.895-.23 0 0 2.437-4.16 7.72-4.09 5.304.067 7.622 4.053 7.622 4.053.176.298.56.396.857.22.296-.176.394-.56.218-.856 0 0-2.747-4.592-8.68-4.668zm-.71 2.478C9.82 6.94 8.214 7.55 7 8.56c-2.377 1.97-3.904 5.585-2.23 10.444.114.326.47.5.796.387.327-.112.5-.468.387-.794-1.54-4.47-.174-7.4 1.846-9.075 1.966-1.63 5.446-2.044 8.038-.416 1.274.8 2.26 2.173 2.766 3.535.505 1.36.478 2.675.07 3.297-.427.65-1.275.897-2.026.706-.75-.192-1.362-.73-1.384-1.877-.033-1.702-1.378-2.77-2.742-2.928-1.365-.16-2.908.557-3.315 2.143-.754 2.94 1.15 7.093 5.576 8.467.33.103.68-.082.783-.412.103-.33-.082-.68-.412-.783-3.834-1.19-5.286-4.818-4.736-6.96.245-.957 1.087-1.315 1.96-1.214.87.1 1.615.626 1.636 1.713.03 1.643 1.106 2.752 2.326 3.064 1.22.31 2.626-.085 3.38-1.23.77-1.175.648-2.823.055-4.42-.592-1.595-1.706-3.176-3.27-4.16-1.544-.968-3.313-1.343-5-1.224zm.35 2.434v.002c-1.778.063-3.555.983-4.582 2.924-1.318 2.493-.72 5.033.168 6.865.888 1.832 2.092 3.058 2.092 3.058.242.247.638.252.885.01.247-.24.25-.637.01-.884 0-.002-1.074-1.1-1.864-2.73s-1.268-3.686-.185-5.734c1.108-2.095 3.1-2.608 4.882-2.092 1.78.515 3.266 2.067 3.218 4.36-.025.343.234.643.578.668.344.026.644-.233.67-.645.06-2.855-1.854-4.93-4.12-5.586-.565-.163-1.158-.237-1.75-.216zm.22 4.998c-.343.01-.615.296-.606.64 0 0 .005 1.482.842 2.91.838 1.43 2.62 2.79 5.717 2.5.344-.022.607-.318.586-.663-.02-.345-.317-.608-.702-.583-2.72.255-3.876-.78-4.523-1.885-.647-1.105-.67-2.293-.67-2.293.002-.346-.277-.627-.642-.628z"/></svg>
